X:368
T: ICH HAB DIE NACHT GETRAEUMET
N: E0207
O: Europa, Mitteleuropa, Deutschland
R: erzaehlendes Volks - Lied, Todes - Ahnung
M: 6/8
L: 1/16
K: E
B,2 | E4F2=G3FE2 | B6A4
A2 | =G3FE2D4E2 | F6z4
E2 | B4B2=G3FE2 | e6=c4
A2 | =G3FE2F3ED2 | E6z4

@@@ Tune index: 4018
